X:1

T:Whish, Cat, from Under the Table

M:6/8

L:1/8

R:Jig

S:O’Neill – Music of Ireland (1903), No. 909

Z:AK/Fiddler’s Companion

K:G

G>AG c2e | d<dA c2e | G>AG c2d | ecA A2c |

G>AG c2e | d<dA c2e | g>fe f2d | ecA A2{B/A/}G :|

|: gfe f2d | edc f2d | gfe f2d | ecA A2G | gfe f2d |

edc f2d | G>AG f2d ecA A2{B/A/}G :|


 

WHISKERS. AKA and see “The Devil’s Ball,” "Steve's Rag,” “Taney County Special.” Old‑Time, Country Rag. USA; Missouri, Alabama. C Major. Standard tuning. AB (Beisswenger & McCann): AA'BB' (Phillips). Related to "Stone's Rag." Ragtime composer Percy Wenrich (born Joplin, Mo.) is said to have based his hit “Peaches and Cream Rag” in part on this tune. Beisswenger (2008) could find no published work by this name, and speculates that it may have been a precursor tune to the mature ragtime genre of the 1890’s, in oral circulation in the latter part of the century. Mark Wilson sees similarities to “Salty Dog Blues,” while Guthrie Meade links it to “Stone’s Rag” and “Alabama Jubilee.” Sources for notated versions: Art Galbraith (Springfield, Mo.) [Phillips]; Lacey Hartje (b. 1926, Joplin, Mo.) [Beisswenger & McCann]. Beisswenger & McCann (Ozark Fiddle Music), 2008; pg. 52. Phillips (Traditional American Fiddle Tunes), vol. 2, 1995; pg. 165. Decca 5049 (78 RPM), Stripling Brothers (Alabama) {1934}. Rounder 0157, Art Galbraith - "Simple Pleasures." Rounder 0436, Lacey Hartje – “Traditional Fiddle Music of the Ozarks, Vol. 2: On the Springfield Plain” (2000). Train on the Island Records TI‑12, Bob Bovee and Gail Heil ‑ "For Old Time's Sake" {learned from Bob Holt (Ava, Mo.)}.

 

WHISKERS [2].  English, Country Dance Tune (2/4 time). G Major. Standard tuning. AAB. The melody appears in John Walsh’s Twenty Four New Country Dances for the Year 1713 (London, 1713). Barnes (English Country Dance Tunes, vol. 2), 2005; pg. 142.

 

WHISKEY. AKA and see "Rye Whiskey [2]." Old‑Time, Breakdown. USA, Pennsylvania. G Major. Standard tuning. AB. "The whole second strain of the present version is evidently made up with a basis of material from the two final bars of the first half. Tunes in which the second part shows clear evidence of derivation from the first are not infrequent in the folk dance music of our tradition, either British or American. They reveal to us another way in which a 'half‑tune' (either incompletely remembered or originally only one strain long) can be eked out to produce a tune of normal reel or hornpipe length" (Bayard, 1944). 'Whiskey', with an 'e' is the American and Irish spelling of the word, while 'whisky' suffices for Scotland and England (as well as Canada). The root for either spelling is the Gaelic 'usquebaugh', which means 'water of life'. Source for notated version: Irvin Yaugher Jr. (Mt. Independence, Pa., 1943; one of his mother's favorite tunes) [Bayard]. Bayard (Hill Country Tunes), 1944; No. 35.

 

WHISKEY AND BEER. AKA and see "Another Jig Will Do," “Tight Breeches.” Irish, Slip Jig. D Major. Standard tuning. AB. The combination of a glass of beer and a shot of whiskey goes by the name 'boilermaker' in some bars. In many 19th century saloons, even in New York City, the only beverages served were whiskey and beer. Cole (1000 Fiddle Tunes), 1940; pg. 58. Ryan’s Mammoth Collection, 1883; pg. 87.

